assets/logos/foursquare.svg

<svg width="80" height="80" viewBox="0 0 80 80" fill="none" xmlns="http://www.w3.org/2000/svg">
<path d="M71.9767 8H8.02319V72H71.9767V8Z" fill="#3333FF"/>
<path d="M24.0696 19.5647H36.0987V21.5386H26.0667V27.0654H34.984V29.0393H26.0667V37.0277H24.0696C24.0696 37.0045 24.0696 19.5647 24.0696 19.5647Z" fill="white"/>
<path d="M23.7213 54.096L25.6719 53.6548C26.0203 56.0699 27.6923 57.5097 30.4092 57.5097C32.8476 57.5097 34.775 56.3718 34.775 54.514C34.775 53.1904 33.7997 52.0757 29.9912 50.9378C25.6719 49.707 24.2322 48.1279 24.2322 45.8057C24.2322 42.8101 26.6473 41.2078 30.1538 41.2078C34.0783 41.2078 35.82 43.2049 36.4238 45.9451L34.4731 46.3863C33.9854 44.1337 32.4528 43.1816 30.0841 43.1816C27.8548 43.1816 26.2757 44.0176 26.2757 45.62C26.2757 46.9204 27.2975 47.9189 30.8272 49.0336C35.0304 50.334 36.8418 51.7506 36.8418 54.4443C36.8418 57.7883 34.0319 59.53 30.4557 59.53C26.7169 59.5068 24.1625 57.5793 23.7213 54.096Z" fill="white"/>
<path d="M39.2337 50.4036C39.2337 45.2251 42.6241 41.1845 47.8258 41.1845C53.0043 41.1845 56.3483 45.2483 56.3483 50.4036C56.3483 52.9813 55.4891 55.2106 54.0493 56.8362C54.746 57.5328 55.4194 58.2295 56.0929 58.9726L54.6531 60.3659C53.9564 59.6228 53.2366 58.8797 52.5167 58.1598C51.193 59.019 49.6139 59.5067 47.8258 59.5067C42.8099 59.5067 39.2337 55.6751 39.2337 50.4036ZM51.0072 56.6736C50.3338 56.0234 49.6604 55.3964 48.9637 54.7926L50.357 53.3761C51.1001 54.0263 51.8432 54.6997 52.5399 55.3732C53.5849 54.1192 54.2119 52.4007 54.2119 50.3804C54.2119 46.2933 51.7271 43.1816 47.8258 43.1816C43.9245 43.1816 41.4165 46.2933 41.4165 50.3804C41.4165 54.5836 44.1335 57.5328 47.8258 57.5328C49.0101 57.5328 50.0784 57.2542 51.0072 56.6736Z" fill="white"/>
</svg>

<svg xmlns="http://www.w3.org/2000/svg" width="80" height="80" fill="none" viewBox="0 0 80 80"><path fill="#33f" d="M71.977 8H8.023v64h63.954z"/><path fill="#fff" d="M24.07 19.565h12.029v1.974H26.067v5.526h8.917v1.974h-8.917v7.989H24.07zm-.349 34.531 1.95-.441c.35 2.415 2.021 3.855 4.738 3.855 2.439 0 4.366-1.138 4.366-2.996 0-1.324-.975-2.438-4.784-3.576-4.32-1.231-5.759-2.81-5.759-5.132 0-2.996 2.415-4.598 5.922-4.598 3.924 0 5.666 1.997 6.27 4.737l-1.95.441c-.489-2.252-2.021-3.204-4.39-3.204-2.23 0-3.808.836-3.808 2.438 0 1.3 1.021 2.299 4.551 3.414 4.203 1.3 6.015 2.717 6.015 5.41 0 3.344-2.81 5.086-6.386 5.086-3.74-.023-6.293-1.95-6.735-5.434m15.513-3.692c0-5.179 3.39-9.22 8.592-9.22 5.178 0 8.522 4.064 8.522 9.22 0 2.577-.859 4.807-2.299 6.432a60 60 0 0 1 2.044 2.137l-1.44 1.393a96 96 0 0 0-2.136-2.206c-1.324.859-2.903 1.347-4.691 1.347-5.016 0-8.592-3.832-8.592-9.103m11.773 6.27a52 52 0 0 0-2.043-1.881l1.393-1.417c.743.65 1.486 1.324 2.183 1.997 1.045-1.254 1.672-2.972 1.672-4.993 0-4.087-2.485-7.198-6.386-7.198s-6.41 3.111-6.41 7.198c0 4.204 2.718 7.153 6.41 7.153 1.184 0 2.252-.279 3.181-.86"/></svg>
